svg/u1f954.svg

<svg viewBox="0 0 128 128" xmlns="http://www.w3.org/2000/svg">
  <path d="M3.84,82.02c-1.59-16.7,7.93-29.95,16-35.29c8.25-5.46,12.1-6.24,13.96-7.29 c8.57-4.82,14.6-15.57,26.12-23.5c13.11-9.02,31.04-10.36,42.04-4.33c10.03,5.5,20.31,17.48,17.56,41.33 c-2.75,23.85-62.67,63.1-72.95,63.66C36.29,117.16,6.24,107.26,3.84,82.02z" fill="#B8885A"/>
  <path d="M70.64,76.69c-4.71,2.76-22.4,20.29-42.7,19.81S4.52,86.21,4.52,86.21s2.91,17.1,16.91,27.23 c15.84,11.46,32.64,6.95,37.54,5.85c7.27-1.63,13.69-4.97,20.12-8.46c6.43-3.49,29.29-14.5,38.27-31.83 c9.91-19.12,7.55-34.44,2.6-45.58c-5.24-11.79-10.35-16.12-10.35-16.12s4.76,24.69-5.32,38.43C89.99,75.22,75.35,73.93,70.64,76.69z " fill="#875B52"/>
  <path d="M47.5,118.52" fill="none" stroke="#B8885A" stroke-miterlimit="10"/>
  <path d="M63.23,97.17c0.06,1.26,4.55,1.16,7.81,0.63c3.45-0.56,6.3-0.61,6.78-1.94 c0.48-1.33-4.78-5.96-7.88-5.8C68,90.17,63.14,95.33,63.23,97.17z" fill="#513531"/>
  <path d="M86.59,99.6c0.67,0.97,3.45-0.51,4.47-1.84c1.02-1.33,2.17-3.9,1.25-4.47 c-0.92-0.57-3.55-0.56-4.85,1.04C86.17,95.94,85.92,98.63,86.59,99.6z" fill="#513531"/>
  <path d="M117.25,38.28c-1.09-1.92-3.04,2.62-3.13,4.19c-0.09,1.57,1.09,2.49,2.4,2.77 C117.81,45.51,120.75,44.45,117.25,38.28z" fill="#513531"/>
  <path d="M29.08,107.08c-0.88,1.49,0.57,2.57,2.04,3.57c1.16,0.79,4,1.21,4.56,0.33 c0.57-0.88-0.55-2.07-2.67-3.85C31.56,105.92,29.96,105.59,29.08,107.08z" fill="#513531"/>
  <path d="M43.81,93.79" fill="none" stroke="#513531" stroke-miterlimit="10"/>
  <path d="M17.4,84.24c-1.25,0.87-0.24,4.73-0.07,5.47c0.17,0.74,5.15,1,5.89-0.14s-0.82-2.79-1.92-3.94 C20.2,84.49,18.65,83.37,17.4,84.24z" fill="#875B52"/>
  <path d="M26.3,75.25c1.54,2.09,4.33-0.42,4.78-2.29c0.48-2.01-1.21-3.32-3.12-2.13 C26.43,71.77,25.4,74.04,26.3,75.25z" fill="#875B52"/>
  <path d="M46.22,35.46c-2-0.84-2.76,0.92-3.51,2.7s-3.17,5.02-1.65,5.47c1.52,0.45,5.1,0.24,5.99-1.21 C47.94,40.96,48.22,36.31,46.22,35.46z" fill="#875B52"/>
  <path d="M12.07,79.48c2.2,0.99,5.62-3.69,7.19-5.94c2.31-3.31,5.79-7.49,13.94-12.54 c11.18-6.92,22.85-5.18,28.85-10.39s9.48-15.54,14.06-20.66c8.37-9.36,17.06-2.97,18.27-7.5c1.21-4.53-4.99-8.38-12.31-8.37 c-7.31,0.02-15.67,2.71-23.27,15s-9.49,16.05-16.54,18.27c-7.05,2.23-15.81,5.17-24.25,14.56C13.32,67.13,8.4,77.83,12.07,79.48z" fill="#D9AC82"/>
  <path d="M82.77,33.82c0.43,3.2,4.83,4.94,7.42,4.97c2.43,0.03,4.18-1.55,4.15-3.16 c-0.03-1.93-3.17-2.82-4.4-3.3c-2.41-0.93-2.97-2.95-5.22-2.23C82.68,30.76,82.71,33.33,82.77,33.82z" fill="#875B52"/>
</svg>

<svg viewBox="0 0 128 128" xmlns="http://www.w3.org/2000/svg">
  <defs/>
  <path d="M3.84,82.02 C2.25,65.32 11.77,52.07 19.84,46.73 C28.09,41.27 31.94,40.49 33.8,39.44 C42.37,34.62 48.4,23.87 59.92,15.94 C73.03,6.92 90.96,5.58 101.96,11.61 C111.99,17.11 122.27,29.09 119.52,52.94 C116.77,76.79 56.85,116.04 46.57,116.6 C36.29,117.16 6.24,107.26 3.84,82.02 Z" fill="#B8885A"/>
  <path d="M70.64,76.69 C65.93,79.45 48.24,96.98 27.94,96.5 C7.64,96.02 4.52,86.21 4.52,86.21 C4.52,86.21 7.43,103.31 21.43,113.44 C37.27,124.9 54.07,120.39 58.97,119.29 C66.24,117.66 72.66,114.32 79.09,110.83 C85.52,107.34 108.38,96.33 117.36,79 C127.27,59.88 124.91,44.56 119.96,33.42 C114.72,21.63 109.61,17.3 109.61,17.3 C109.61,17.3 114.37,41.99 104.29,55.73 C89.99,75.22 75.35,73.93 70.64,76.69 Z" fill="#875B52"/>
  <path d="M63.23,97.17 C63.29,98.43 67.78,98.33 71.04,97.8 C74.49,97.24 77.34,97.19 77.82,95.86 C78.3,94.53 73.04,89.9 69.94,90.06 C68,90.17 63.14,95.33 63.23,97.17 Z" fill="#513531"/>
  <path d="M86.59,99.6 C87.26,100.57 90.04,99.09 91.06,97.76 C92.08,96.43 93.23,93.86 92.31,93.29 C91.39,92.72 88.76,92.73 87.46,94.33 C86.17,95.94 85.92,98.63 86.59,99.6 Z" fill="#513531"/>
  <path d="M117.25,38.28 C116.16,36.36 114.21,40.9 114.12,42.47 C114.03,44.04 115.21,44.96 116.52,45.24 C117.81,45.51 120.75,44.45 117.25,38.28 Z" fill="#513531"/>
  <path d="M29.08,107.08 C28.2,108.57 29.65,109.65 31.12,110.65 C32.28,111.44 35.12,111.86 35.68,110.98 C36.25,110.1 35.13,108.91 33.01,107.13 C31.56,105.92 29.96,105.59 29.08,107.08 Z" fill="#513531"/>
  <path d="M17.4,84.24 C16.15,85.11 17.16,88.97 17.33,89.71 C17.5,90.45 22.48,90.71 23.22,89.57 C23.96,88.43 22.4,86.78 21.3,85.63 C20.2,84.49 18.65,83.37 17.4,84.24 Z" fill="#875B52"/>
  <path d="M26.3,75.25 C27.84,77.34 30.63,74.83 31.08,72.96 C31.56,70.95 29.87,69.64 27.96,70.83 C26.43,71.77 25.4,74.04 26.3,75.25 Z" fill="#875B52"/>
  <path d="M46.22,35.46 C44.22,34.62 43.46,36.38 42.71,38.16 C41.96,39.94 39.54,43.18 41.06,43.63 C42.58,44.08 46.16,43.87 47.05,42.42 C47.94,40.96 48.22,36.31 46.22,35.46 Z" fill="#875B52"/>
  <path d="M12.07,79.48 C14.27,80.47 17.69,75.79 19.26,73.54 C21.57,70.23 25.05,66.05 33.2,61 C44.38,54.08 56.05,55.82 62.05,50.61 C68.05,45.4 71.53,35.07 76.11,29.95 C84.48,20.59 93.17,26.98 94.38,22.45 C95.59,17.92 89.39,14.07 82.07,14.08 C74.76,14.1 66.4,16.79 58.8,29.08 C51.2,41.37 49.31,45.13 42.26,47.35 C35.21,49.58 26.45,52.52 18.01,61.91 C13.32,67.13 8.4,77.83 12.07,79.48 Z" fill="#D9AC82"/>
  <path d="M82.77,33.82 C83.2,37.02 87.6,38.76 90.19,38.79 C92.62,38.82 94.37,37.24 94.34,35.63 C94.31,33.7 91.17,32.81 89.94,32.33 C87.53,31.4 86.97,29.38 84.72,30.1 C82.68,30.76 82.71,33.33 82.77,33.82 Z" fill="#875B52"/>
</svg>
